symbols/web/featured_video/materialsymbolsrounded/featured_video_wght300grad200fill1_48px.svg

<svg xmlns="http://www.w3.org/2000/svg" height="48" width="48"><path d="M11.55 27.55h14.4q.7 0 1.225-.5.525-.5.525-1.25V15.6q0-.7-.525-1.2t-1.225-.5h-14.4q-.7 0-1.2.5t-.5 1.2v10.2q0 .75.5 1.25t1.2.5ZM7.9 39.6q-1.45 0-2.5-1.05t-1.05-2.5v-24.1q0-1.45 1.05-2.5T7.9 8.4h32.2q1.45 0 2.5 1.05t1.05 2.5v24.1q0 1.45-1.05 2.5t-2.5 1.05Z"/></svg>

<svg xmlns="http://www.w3.org/2000/svg" height="48" width="48"><path d="M11.55 27.55H25.95Q26.65 27.55 27.175 27.05Q27.7 26.55 27.7 25.8V15.6Q27.7 14.9 27.175 14.4Q26.65 13.9 25.95 13.9H11.55Q10.85 13.9 10.35 14.4Q9.85 14.9 9.85 15.6V25.8Q9.85 26.55 10.35 27.05Q10.85 27.55 11.55 27.55ZM7.9 39.6Q6.45 39.6 5.4 38.55Q4.35 37.5 4.35 36.05V11.95Q4.35 10.5 5.4 9.45Q6.45 8.4 7.9 8.4H40.1Q41.55 8.4 42.6 9.45Q43.65 10.5 43.65 11.95V36.05Q43.65 37.5 42.6 38.55Q41.55 39.6 40.1 39.6Z"/></svg>
